X: 14748
T: Gan Ainm
R: jig
M: 6/8
K: Cmajor
|:CD/E/G CD/E/G|ced c2 A|c/A/Gc AGE|DED CA,G,|
CD/E/G CD/E/G|ced c2 A|c/A/Gc AGE|1 DCA, C2 G,:|2 DCA, CEA||
|:Gcc d/c/Bc|gae gec|ded cAG|e e/e/e {c}dcA|
Gcc d/c/Bc|gae gec|ded {B}cAG|1 {B}AGE CcA:|2 {B}AGE CED||

